material/.icons/material/account-details-outline.svg

<svg xmlns="http://www.w3.org/2000/svg" viewBox="0 0 24 24"><path d="M11 9c0 1.66-1.34 3-3 3s-3-1.34-3-3 1.34-3 3-3 3 1.34 3 3m3 11H2v-2c0-2.21 2.69-4 6-4s6 1.79 6 4M7 9c0 .55.45 1 1 1s1-.45 1-1-.45-1-1-1-1 .45-1 1m-3 9h8c0-1.1-1.79-2-4-2s-4 .9-4 2m18-6v2h-9v-2m9-4v2h-9V8m9-4v2h-9V4z"/></svg>

<?xml version="1.0" encoding="UTF-8"?><!DOCTYPE svg PUBLIC "-//W3C//DTD SVG 1.1//EN" "http://www.w3.org/Graphics/SVG/1.1/DTD/svg11.dtd"><svg xmlns="http://www.w3.org/2000/svg" xmlns:xlink="http://www.w3.org/1999/xlink" version="1.1" id="mdi-account-details-outline" width="24" height="24" viewBox="0 0 24 24"><path d="M11 9C11 10.66 9.66 12 8 12C6.34 12 5 10.66 5 9C5 7.34 6.34 6 8 6C9.66 6 11 7.34 11 9M14 20H2V18C2 15.79 4.69 14 8 14C11.31 14 14 15.79 14 18M7 9C7 9.55 7.45 10 8 10C8.55 10 9 9.55 9 9C9 8.45 8.55 8 8 8C7.45 8 7 8.45 7 9M4 18H12C12 16.9 10.21 16 8 16C5.79 16 4 16.9 4 18M22 12V14H13V12M22 8V10H13V8M22 4V6H13V4Z" /></svg>
